Newaita-dark/apps/22/google-play-music-desktop-player.svg

<svg height="22" viewBox="0 0 22 22" width="22" xmlns="http://www.w3.org/2000/svg" xmlns:xlink="http://www.w3.org/1999/xlink"><linearGradient id="a"><stop offset="0" stop-opacity=".313726"/><stop offset=".222222" stop-opacity=".27451"/><stop offset="1" stop-opacity="0"/></linearGradient><radialGradient id="b" cx="450.908936" cy="189.579361" gradientTransform="matrix(.00000012 -.0537161 -.0966889 -.00000007 30.609667 43.721789)" gradientUnits="userSpaceOnUse" r="21.166656" xlink:href="#a"/><radialGradient id="c" cx="450.908936" cy="189.579361" gradientTransform="matrix(-.00000012 .0537161 .0966889 .00000007 -8.779457 -5.175144)" gradientUnits="userSpaceOnUse" r="21.166656" xlink:href="#a"/><radialGradient id="d" cx="450.908936" cy="189.579361" gradientTransform="matrix(-.00000012 -.0537161 .0966889 -.00000007 -8.779457 43.721789)" gradientUnits="userSpaceOnUse" r="21.166656" xlink:href="#a"/><radialGradient id="e" cx="450.908936" cy="189.579361" gradientTransform="matrix(.00000012 .0537161 -.0966889 .00000007 30.609666 -5.175144)" gradientUnits="userSpaceOnUse" r="21.166656" xlink:href="#a"/><linearGradient id="f" gradientTransform="matrix(.00918504 0 0 .0429729 8.569953 9.239164)" gradientUnits="userSpaceOnUse" x1="255.323059" x2="255.323044" y1="233.5" y2="254.666656"><stop offset="0" stop-opacity=".27451"/><stop offset="1" stop-opacity="0"/></linearGradient><linearGradient id="g" gradientUnits="userSpaceOnUse" x1="254" x2="254" y1="-168.666672" y2="233.5"><stop offset="0" stop-color="#ff8a65"/><stop offset="1" stop-color="#ff7043"/></linearGradient><linearGradient id="h" gradientUnits="userSpaceOnUse" x1="10.9150946" x2="10.9150946" y1="3.8102663524" y2="17.45413265"><stop offset="0" stop-color="#ffd54f"/><stop offset="1" stop-color="#ffca28"/></linearGradient><linearGradient id="i" gradientUnits="userSpaceOnUse" x1="242.093745" x2="242.093745" y1="127.238003" y2="-52.678669"><stop offset="0" stop-color="#e0e0e0"/><stop offset="1" stop-color="#fafafa"/></linearGradient><path d="m12.507812 19.273438h1.816407v-.910157h-1.816407zm0 0" fill="url(#b)"/><path d="m9.324219 19.273438h-1.820313v.910156h1.820313zm0 0" fill="url(#c)"/><path d="m9.324219 19.273438h-1.820313v-.910157h1.820313zm0 0" fill="url(#d)"/><path d="m12.507812 19.273438h1.816407v.910156h-1.816407zm0 0" fill="url(#e)"/><path d="m9.324219 19.046875h3.183593v1.136719h-3.183593zm0 0" fill="url(#f)"/><path d="m253.975747-168.640791c111.080301 0 201.071707 89.991407 201.071707 201.071708s-89.991406 201.071708-201.071707 201.071708c-110.989402 0-201.071708-89.991407-201.071708-201.071708s90.082306-201.071708 201.071708-201.071708zm0 0" fill="url(#g)" stroke="#333" stroke-linecap="round" stroke-width="3" transform="matrix(.0429729 0 0 .0429729 0 9.239163)"/><path d="m10.914062 19.273438c-4.785156 0-8.640624-3.855469-8.640624-8.640626 0-.027343 0-.058593 0-.085937.046874 4.75 3.882812 8.558594 8.640624 8.558594 4.761719 0 8.597657-3.808594 8.640626-8.558594v.085937c0 4.785157-3.851563 8.640626-8.640626 8.640626zm0 0" fill-opacity=".196078"/><path d="m10.914062 1.992188c-4.785156 0-8.640624 3.851562-8.640624 8.640624v.085938c.046874-4.75 3.882812-8.558594 8.640624-8.558594 4.761719 0 8.597657 3.808594 8.640626 8.558594 0-.03125 0-.058594 0-.085938 0-4.789062-3.851563-8.640624-8.640626-8.640624zm0 0" fill="#fff" fill-opacity=".392157"/><path d="m10.914062 1.925781c-4.820312 0-8.703124 3.882813-8.703124 8.707031 0 4.820313 3.882812 8.703126 8.703124 8.703126 4.824219 0 8.707032-3.882813 8.707032-8.703126 0-4.824218-3.882813-8.707031-8.707032-8.707031zm0 .128907c4.753907 0 8.578126 3.824218 8.578126 8.578124 0 4.75-3.824219 8.574219-8.578126 8.574219-4.75 0-8.574218-3.824219-8.574218-8.574219 0-4.753906 3.824218-8.578124 8.574218-8.578124zm0 0" fill="#212121"/><path d="m10.914062 3.808594c3.769532 0 6.824219 3.054687 6.824219 6.824218 0 3.765626-3.054687 6.820313-6.824219 6.820313-3.765624 0-6.820312-3.054687-6.820312-6.820313 0-3.769531 3.054688-6.824218 6.820312-6.824218zm0 0" fill="url(#h)"/><path d="m210.34355-53.106369c-11.726153 0-21.179796 9.453643-21.179796 21.179795v137.986823c0 11.726153 9.453643 21.179796 21.179796 21.179796 10.544447 0 96.990737-57.994462 145.531557-87.355294 7.908335-5.272224 7.908335-10.544448 0-15.816672-48.54082-25.724816-129.623986-76.719946-145.531557-77.174448zm0 0" fill="url(#i)" stroke="#ccc" stroke-linecap="round" stroke-width="3" transform="matrix(.0429729 0 0 .0429729 0 9.239163)"/><path d="m9.039062 6.957031c-.503906 0-.910156.40625-.910156.910157v.1875c0-.503907.40625-.910157.910156-.910157.683594.019531 4.167969 2.210938 6.253907 3.316407.121093.082031.203125.164062.234375.246093.0625-.144531-.015625-.289062-.234375-.433593-2.085938-1.105469-5.570313-3.296876-6.253907-3.316407zm0 0" fill="#fff" fill-opacity=".996774"/><path d="m9.039062 6.890625c-.539062 0-.972656.4375-.972656.976563v5.929687c0 .539063.433594.972656.972656.972656.085938 0 .191407-.042969.339844-.113281.152344-.074219.34375-.175781.566406-.304688.449219-.253906 1.019532-.601562 1.644532-.992187 1.246094-.78125 2.695312-1.71875 3.734375-2.347656l.003906-.003907c.179687-.117187.285156-.25.285156-.394531s-.105469-.273437-.285156-.394531h-.003906v-.003906c-1.042969-.550782-2.433594-1.375-3.652344-2.0625-.609375-.34375-1.175781-.65625-1.632813-.882813-.226562-.113281-.429687-.207031-.597656-.269531-.167968-.066406-.300781-.105469-.402344-.109375zm0 .132813c.066407 0 .195313.035156.355469.097656.160157.0625.359375.152344.585938.265625.453125.222656 1.019531.53125 1.628906.875 1.214844.6875 2.605469 1.511719 3.648437 2.066406.160157.105469.226563.203125.226563.285156s-.066406.179688-.226563.289063c-1.042968.628906-2.492187 1.566406-3.738281 2.347656-.621093.390625-1.195312.738281-1.636719.992188-.222656.125-.410156.226562-.558593.296874-.144531.066407-.257813.101563-.285157.101563-.46875 0-.84375-.375-.84375-.84375v-5.929687c0-.46875.375-.84375.84375-.84375zm0 0" fill="#212121"/><path d="m10.914062 3.867188c-3.777343 0-6.820312 3.042968-6.820312 6.820312v.164062c.09375-3.695312 3.101562-6.644531 6.820312-6.644531 3.722657 0 6.726563 2.949219 6.820313 6.644531 0-.054687.003906-.109374.003906-.164062 0-3.777344-3.042969-6.820312-6.824219-6.820312zm0 0" fill-opacity=".235294"/><path d="m4.097656 10.859375c-.003906.074219-.003906.152344-.003906.226563 0 3.78125 3.042969 6.824218 6.820312 6.824218 3.78125 0 6.824219-3.042968 6.824219-6.824218 0-.074219-.003906-.152344-.003906-.226563-.121094 3.671875-3.117187 6.59375-6.820313 6.59375-3.703124 0-6.699218-2.921875-6.816406-6.59375zm0 0" fill="#fff" fill-opacity=".392157"/><path d="m253.975747-126.3721c87.718896 0 158.803016 71.084121 158.803016 158.803017 0 87.627996-71.08412 158.712116-158.803016 158.712116-87.627996 0-158.712117-71.08412-158.712117-158.712116 0-87.718896 71.084121-158.803017 158.712117-158.803017zm0 0" fill="none" stroke="#333" stroke-linecap="round" stroke-width="3" transform="matrix(.0429729 0 0 .0429729 0 9.239163)"/><path d="m15.425781 10.851562c-.035156.035157-.082031.070313-.132812.101563-2.085938 1.261719-5.800781 3.753906-6.253907 3.753906-.503906 0-.910156-.40625-.910156-.910156v.472656c0 .503907.40625.910157.910156.910157.453126 0 4.167969-2.492188 6.253907-3.75.289062-.195313.332031-.386719.132812-.578126zm0 0" fill-opacity=".235294"/></svg>

<?xml version="1.0" encoding="UTF-8"?>
<svg xmlns="http://www.w3.org/2000/svg" xmlns:xlink="http://www.w3.org/1999/xlink" width="22px" height="22px" viewBox="0 0 22 22" version="1.1">
<defs>
<radialGradient id="radial0" gradientUnits="userSpaceOnUse" cx="450.908936" cy="189.579361" fx="450.908936" fy="189.579361" r="21.166656" gradientTransform="matrix(0.000000119742,-0.0537161,-0.0966889,-0.0000000698078,30.609667,43.721789)">
<stop offset="0" style="stop-color:rgb(0%,0%,0%);stop-opacity:0.313726;"/>
<stop offset="0.222222" style="stop-color:rgb(0%,0%,0%);stop-opacity:0.27451;"/>
<stop offset="1" style="stop-color:rgb(0%,0%,0%);stop-opacity:0;"/>
</radialGradient>
<radialGradient id="radial1" gradientUnits="userSpaceOnUse" cx="450.908936" cy="189.579361" fx="450.908936" fy="189.579361" r="21.166656" gradientTransform="matrix(-0.000000119742,0.0537161,0.0966889,0.0000000698078,-8.779457,-5.175144)">
<stop offset="0" style="stop-color:rgb(0%,0%,0%);stop-opacity:0.313726;"/>
<stop offset="0.222222" style="stop-color:rgb(0%,0%,0%);stop-opacity:0.27451;"/>
<stop offset="1" style="stop-color:rgb(0%,0%,0%);stop-opacity:0;"/>
</radialGradient>
<radialGradient id="radial2" gradientUnits="userSpaceOnUse" cx="450.908936" cy="189.579361" fx="450.908936" fy="189.579361" r="21.166656" gradientTransform="matrix(-0.000000119742,-0.0537161,0.0966889,-0.0000000698078,-8.779457,43.721789)">
<stop offset="0" style="stop-color:rgb(0%,0%,0%);stop-opacity:0.313726;"/>
<stop offset="0.222222" style="stop-color:rgb(0%,0%,0%);stop-opacity:0.27451;"/>
<stop offset="1" style="stop-color:rgb(0%,0%,0%);stop-opacity:0;"/>
</radialGradient>
<radialGradient id="radial3" gradientUnits="userSpaceOnUse" cx="450.908936" cy="189.579361" fx="450.908936" fy="189.579361" r="21.166656" gradientTransform="matrix(0.000000119742,0.0537161,-0.0966889,0.0000000698078,30.609666,-5.175144)">
<stop offset="0" style="stop-color:rgb(0%,0%,0%);stop-opacity:0.313726;"/>
<stop offset="0.222222" style="stop-color:rgb(0%,0%,0%);stop-opacity:0.27451;"/>
<stop offset="1" style="stop-color:rgb(0%,0%,0%);stop-opacity:0;"/>
</radialGradient>
<linearGradient id="linear0" gradientUnits="userSpaceOnUse" x1="255.323059" y1="233.5" x2="255.323044" y2="254.666656" gradientTransform="matrix(0.00918504,0,0,0.0429729,8.569953,9.239164)">
<stop offset="0" style="stop-color:rgb(0%,0%,0%);stop-opacity:0.27451;"/>
<stop offset="1" style="stop-color:rgb(0%,0%,0%);stop-opacity:0;"/>
</linearGradient>
<linearGradient id="linear1" gradientUnits="userSpaceOnUse" x1="254" y1="-168.666672" x2="254" y2="233.5" >
<stop offset="0" style="stop-color:rgb(100%,54.11765%,39.607844%);stop-opacity:1;"/>
<stop offset="1" style="stop-color:rgb(100%,43.921569%,26.274511%);stop-opacity:1;"/>
</linearGradient>
<linearGradient id="linear2" gradientUnits="userSpaceOnUse" x1="254" y1="-168.666672" x2="254" y2="233.5" gradientTransform="matrix(0.0339259,0,0,0.0339259,2.297916,9.532435)">
<stop offset="0" style="stop-color:rgb(100%,83.529413%,30.980393%);stop-opacity:1;"/>
<stop offset="1" style="stop-color:rgb(100%,79.215688%,15.686275%);stop-opacity:1;"/>
</linearGradient>
<linearGradient id="linear3" gradientUnits="userSpaceOnUse" x1="254" y1="85.333336" x2="254" y2="-94.583336" gradientTransform="matrix(1,0,0,1,-11.906255,41.904667)">
<stop offset="0" style="stop-color:rgb(87.843138%,87.843138%,87.843138%);stop-opacity:1;"/>
<stop offset="1" style="stop-color:rgb(98.039216%,98.039216%,98.039216%);stop-opacity:1;"/>
</linearGradient>
</defs>
<g id="surface1">
<path style=" stroke:none;fill-rule:nonzero;fill:url(#radial0);" d="M 12.507812 19.273438 L 14.324219 19.273438 L 14.324219 18.363281 L 12.507812 18.363281 Z M 12.507812 19.273438 "/>
<path style=" stroke:none;fill-rule:nonzero;fill:url(#radial1);" d="M 9.324219 19.273438 L 7.503906 19.273438 L 7.503906 20.183594 L 9.324219 20.183594 Z M 9.324219 19.273438 "/>
<path style=" stroke:none;fill-rule:nonzero;fill:url(#radial2);" d="M 9.324219 19.273438 L 7.503906 19.273438 L 7.503906 18.363281 L 9.324219 18.363281 Z M 9.324219 19.273438 "/>
<path style=" stroke:none;fill-rule:nonzero;fill:url(#radial3);" d="M 12.507812 19.273438 L 14.324219 19.273438 L 14.324219 20.183594 L 12.507812 20.183594 Z M 12.507812 19.273438 "/>
<path style=" stroke:none;fill-rule:nonzero;fill:url(#linear0);" d="M 9.324219 19.046875 L 12.507812 19.046875 L 12.507812 20.183594 L 9.324219 20.183594 Z M 9.324219 19.046875 "/>
<path style="fill-rule:nonzero;fill:url(#linear1);stroke-width:3;stroke-linecap:round;stroke-linejoin:miter;stroke:rgb(20%,20%,20%);stroke-opacity:1;stroke-miterlimit:4;" d="M 253.975747 -168.640791 C 365.056048 -168.640791 455.047454 -78.649384 455.047454 32.430917 C 455.047454 143.511218 365.056048 233.502625 253.975747 233.502625 C 142.986345 233.502625 52.904039 143.511218 52.904039 32.430917 C 52.904039 -78.649384 142.986345 -168.640791 253.975747 -168.640791 Z M 253.975747 -168.640791 " transform="matrix(0.0429729,0,0,0.0429729,0,9.239163)"/>
<path style=" stroke:none;fill-rule:nonzero;fill:rgb(0%,0%,0%);fill-opacity:0.196078;" d="M 10.914062 19.273438 C 6.128906 19.273438 2.273438 15.417969 2.273438 10.632812 C 2.273438 10.605469 2.273438 10.574219 2.273438 10.546875 C 2.320312 15.296875 6.15625 19.105469 10.914062 19.105469 C 15.675781 19.105469 19.511719 15.296875 19.554688 10.546875 C 19.554688 10.574219 19.554688 10.605469 19.554688 10.632812 C 19.554688 15.417969 15.703125 19.273438 10.914062 19.273438 Z M 10.914062 19.273438 "/>
<path style=" stroke:none;fill-rule:nonzero;fill:rgb(100%,100%,100%);fill-opacity:0.392157;" d="M 10.914062 1.992188 C 6.128906 1.992188 2.273438 5.84375 2.273438 10.632812 C 2.273438 10.660156 2.273438 10.6875 2.273438 10.71875 C 2.320312 5.96875 6.15625 2.160156 10.914062 2.160156 C 15.675781 2.160156 19.511719 5.96875 19.554688 10.71875 C 19.554688 10.6875 19.554688 10.660156 19.554688 10.632812 C 19.554688 5.84375 15.703125 1.992188 10.914062 1.992188 Z M 10.914062 1.992188 "/>
<path style=" stroke:none;fill-rule:nonzero;fill:rgb(12.941177%,12.941177%,12.941177%);fill-opacity:1;" d="M 10.914062 1.925781 C 6.09375 1.925781 2.210938 5.808594 2.210938 10.632812 C 2.210938 15.453125 6.09375 19.335938 10.914062 19.335938 C 15.738281 19.335938 19.621094 15.453125 19.621094 10.632812 C 19.621094 5.808594 15.738281 1.925781 10.914062 1.925781 Z M 10.914062 2.054688 C 15.667969 2.054688 19.492188 5.878906 19.492188 10.632812 C 19.492188 15.382812 15.667969 19.207031 10.914062 19.207031 C 6.164062 19.207031 2.339844 15.382812 2.339844 10.632812 C 2.339844 5.878906 6.164062 2.054688 10.914062 2.054688 Z M 10.914062 2.054688 "/>
<path style=" stroke:none;fill-rule:nonzero;fill:url(#linear2);" d="M 10.914062 3.808594 C 14.683594 3.808594 17.738281 6.863281 17.738281 10.632812 C 17.738281 14.398438 14.683594 17.453125 10.914062 17.453125 C 7.148438 17.453125 4.09375 14.398438 4.09375 10.632812 C 4.09375 6.863281 7.148438 3.808594 10.914062 3.808594 Z M 10.914062 3.808594 "/>
<path style="fill-rule:nonzero;fill:url(#linear3);stroke-width:3;stroke-linecap:round;stroke-linejoin:miter;stroke:rgb(80.000001%,80.000001%,80.000001%);stroke-opacity:1;stroke-miterlimit:4;" d="M 210.34355 -53.106369 C 198.617397 -53.106369 189.163754 -43.652726 189.163754 -31.926574 L 189.163754 106.060249 C 189.163754 117.786402 198.617397 127.240045 210.34355 127.240045 C 220.887997 127.240045 307.334287 69.245583 355.875107 39.884751 C 363.783442 34.612527 363.783442 29.340303 355.875107 24.068079 C 307.334287 -1.656737 226.251121 -52.651867 210.34355 -53.106369 Z M 210.34355 -53.106369 " transform="matrix(0.0429729,0,0,0.0429729,0,9.239163)"/>
<path style=" stroke:none;fill-rule:nonzero;fill:rgb(100%,100%,100%);fill-opacity:0.996774;" d="M 9.039062 6.957031 C 8.535156 6.957031 8.128906 7.363281 8.128906 7.867188 L 8.128906 8.054688 C 8.128906 7.550781 8.535156 7.144531 9.039062 7.144531 C 9.722656 7.164062 13.207031 9.355469 15.292969 10.460938 C 15.414062 10.542969 15.496094 10.625 15.527344 10.707031 C 15.589844 10.5625 15.511719 10.417969 15.292969 10.273438 C 13.207031 9.167969 9.722656 6.976562 9.039062 6.957031 Z M 9.039062 6.957031 "/>
<path style=" stroke:none;fill-rule:nonzero;fill:rgb(12.941177%,12.941177%,12.941177%);fill-opacity:1;" d="M 9.039062 6.890625 C 8.5 6.890625 8.066406 7.328125 8.066406 7.867188 L 8.066406 13.796875 C 8.066406 14.335938 8.5 14.769531 9.039062 14.769531 C 9.125 14.769531 9.230469 14.726562 9.378906 14.65625 C 9.53125 14.582031 9.722656 14.480469 9.945312 14.351562 C 10.394531 14.097656 10.964844 13.75 11.589844 13.359375 C 12.835938 12.578125 14.285156 11.640625 15.324219 11.011719 L 15.328125 11.007812 C 15.507812 10.890625 15.613281 10.757812 15.613281 10.613281 C 15.613281 10.46875 15.507812 10.339844 15.328125 10.21875 L 15.324219 10.21875 L 15.324219 10.214844 C 14.28125 9.664062 12.890625 8.839844 11.671875 8.152344 C 11.0625 7.808594 10.496094 7.496094 10.039062 7.269531 C 9.8125 7.15625 9.609375 7.0625 9.441406 7 C 9.273438 6.933594 9.140625 6.894531 9.039062 6.890625 Z M 9.039062 7.023438 C 9.105469 7.023438 9.234375 7.058594 9.394531 7.121094 C 9.554688 7.183594 9.753906 7.273438 9.980469 7.386719 C 10.433594 7.609375 11 7.917969 11.609375 8.261719 C 12.824219 8.949219 14.214844 9.773438 15.257812 10.328125 C 15.417969 10.433594 15.484375 10.53125 15.484375 10.613281 C 15.484375 10.695312 15.417969 10.792969 15.257812 10.902344 C 14.214844 11.53125 12.765625 12.46875 11.519531 13.25 C 10.898438 13.640625 10.324219 13.988281 9.882812 14.242188 C 9.660156 14.367188 9.472656 14.46875 9.324219 14.539062 C 9.179688 14.605469 9.066406 14.640625 9.039062 14.640625 C 8.570312 14.640625 8.195312 14.265625 8.195312 13.796875 L 8.195312 7.867188 C 8.195312 7.398438 8.570312 7.023438 9.039062 7.023438 Z M 9.039062 7.023438 "/>
<path style=" stroke:none;fill-rule:nonzero;fill:rgb(0%,0%,0%);fill-opacity:0.235294;" d="M 10.914062 3.867188 C 7.136719 3.867188 4.09375 6.910156 4.09375 10.6875 C 4.09375 10.742188 4.09375 10.796875 4.09375 10.851562 C 4.1875 7.15625 7.195312 4.207031 10.914062 4.207031 C 14.636719 4.207031 17.640625 7.15625 17.734375 10.851562 C 17.734375 10.796875 17.738281 10.742188 17.738281 10.6875 C 17.738281 6.910156 14.695312 3.867188 10.914062 3.867188 Z M 10.914062 3.867188 "/>
<path style=" stroke:none;fill-rule:nonzero;fill:rgb(100%,100%,100%);fill-opacity:0.392157;" d="M 4.097656 10.859375 C 4.09375 10.933594 4.09375 11.011719 4.09375 11.085938 C 4.09375 14.867188 7.136719 17.910156 10.914062 17.910156 C 14.695312 17.910156 17.738281 14.867188 17.738281 11.085938 C 17.738281 11.011719 17.734375 10.933594 17.734375 10.859375 C 17.613281 14.53125 14.617188 17.453125 10.914062 17.453125 C 7.210938 17.453125 4.214844 14.53125 4.097656 10.859375 Z M 4.097656 10.859375 "/>
<path style="fill:none;stroke-width:3;stroke-linecap:round;stroke-linejoin:miter;stroke:rgb(20%,20%,20%);stroke-opacity:1;stroke-miterlimit:4;" d="M 253.975747 -126.3721 C 341.694643 -126.3721 412.778763 -55.287979 412.778763 32.430917 C 412.778763 120.058913 341.694643 191.143033 253.975747 191.143033 C 166.347751 191.143033 95.26363 120.058913 95.26363 32.430917 C 95.26363 -55.287979 166.347751 -126.3721 253.975747 -126.3721 Z M 253.975747 -126.3721 " transform="matrix(0.0429729,0,0,0.0429729,0,9.239163)"/>
<path style=" stroke:none;fill-rule:nonzero;fill:rgb(0%,0%,0%);fill-opacity:0.235294;" d="M 15.425781 10.851562 C 15.390625 10.886719 15.34375 10.921875 15.292969 10.953125 C 13.207031 12.214844 9.492188 14.707031 9.039062 14.707031 C 8.535156 14.707031 8.128906 14.300781 8.128906 13.796875 L 8.128906 14.269531 C 8.128906 14.773438 8.535156 15.179688 9.039062 15.179688 C 9.492188 15.179688 13.207031 12.6875 15.292969 11.429688 C 15.582031 11.234375 15.625 11.042969 15.425781 10.851562 Z M 15.425781 10.851562 "/>
</g>
</svg>
